img/whatsapp-icon.svg

<svg width="30" height="35" viewBox="0 0 30 35" fill="none" xmlns="http://www.w3.org/2000/svg">
<path opacity="0.5" d="M14.7231 0C6.59226 0 0 7.77405 0 17.3625C0 20.6197 0.775835 23.6565 2.09919 26.2613L0.131798 34.725L7.46219 32.4558C9.60602 33.8931 12.0809 34.725 14.7231 34.725C22.8539 34.725 29.4462 26.9509 29.4462 17.3625C29.4462 7.77405 22.8539 0 14.7231 0ZM9.68359 9.26338C9.92284 9.26338 10.1687 9.26167 10.3809 9.27469C10.6435 9.28192 10.9293 9.3046 11.2029 10.0179C11.528 10.8658 12.236 12.9928 12.3267 13.2084C12.4175 13.424 12.4819 13.6779 12.3555 13.9601C12.2353 14.2494 12.1727 14.4246 11.9961 14.6807C11.8132 14.9295 11.6129 15.2386 11.4473 15.4267C11.2645 15.6423 11.0757 15.8787 11.2867 16.3084C11.4978 16.7381 12.2307 18.1469 13.314 19.2841C14.7066 20.7512 15.8815 21.2021 16.2472 21.4177C16.6128 21.6333 16.8245 21.5997 17.0355 21.3103C17.2527 21.0282 17.9476 20.06 18.193 19.6289C18.4322 19.1977 18.6765 19.2723 19.0077 19.4141C19.3439 19.5559 21.1367 20.5974 21.5023 20.8129C21.8679 21.0285 22.1076 21.1352 22.1996 21.3103C22.2941 21.4912 22.2942 22.3521 21.9912 23.3563C21.6881 24.359 20.2 25.3286 19.5325 25.3966C18.8589 25.4704 18.2303 25.7536 15.1544 24.3256C11.4442 22.6023 9.10437 18.121 8.92156 17.8316C8.73874 17.5495 7.43583 15.5017 7.43583 13.3892C7.43583 11.2696 8.37824 10.2315 8.70828 9.80031C9.04446 9.36914 9.43821 9.26338 9.68359 9.26338Z" fill="white"/>
</svg>

<svg width="30" height="35" fill="none" xmlns="http://www.w3.org/2000/svg"><path opacity=".5" d="M14.723 0C6.593 0 0 7.774 0 17.363c0 3.257.776 6.294 2.1 8.898L.131 34.725l7.33-2.27c2.144 1.438 4.619 2.27 7.261 2.27 8.13 0 14.723-7.774 14.723-17.363C29.446 7.775 22.854 0 14.723 0zm-5.04 9.263c.24 0 .486-.001.698.012.262.007.548.03.822.743.325.848 1.033 2.975 1.124 3.19.09.216.155.47.028.752-.12.29-.182.465-.359.72-.183.25-.383.559-.549.747-.182.215-.371.452-.16.881.21.43.944 1.839 2.027 2.976 1.393 1.467 2.568 1.918 2.933 2.134.366.215.578.182.788-.108.218-.282.913-1.25 1.158-1.681.24-.431.483-.357.815-.215.336.142 2.129 1.183 2.494 1.399.366.216.606.322.698.497.094.181.094 1.042-.209 2.046-.303 1.003-1.791 1.973-2.459 2.04-.673.074-1.302.358-4.378-1.07-3.71-1.724-6.05-6.205-6.232-6.494-.183-.283-1.486-2.33-1.486-4.443 0-2.12.942-3.157 1.272-3.589.336-.43.73-.537.976-.537z" fill="#fff"/></svg>
